X:1
T:Title
%%score { ( 1 2 ) | ( 3 4 ) }
L:1/8
M:6/8
K:Eb
V:1 treble nm="Grand Piano"
V:2 treble 
V:3 bass 
V:4 bass 
V:1
 z3 z z[Q:1/4=81] z/ F/ | G>GG [Ge][Bd][Ac] | [GB]>[Ac][GB] [EG]3 | [DF]>[DF][DF] [DF][CE][DF] | %4
[M:5/8] G3 B2 |[M:1/8] B |[M:3/4] [Ge]>[Ge] [Ge][Ad] [Ae][Ac] | [GB]>[Ac] [GB] [B,EG]3 | %8
 [A,DF]>[A,DF] [A,DF][A,DF] [B,DG][A,DF] | [G,E]6 | [DF]>[EG] [FA][FA] [EG][DF] | %11
 [B,A]2- [B,-EA-][B,-FA-] [B,EA][B,DA] | [B,EG]>[B,FA] [B,GB][EGB] [B,FA]G | B6 | %14
 [Ge]>[Bd] [Ac] [GB]2 [EB] | [Ge]>[Bd] [DAc] [EGB]2 [CFA] | [EG]>[EG] [EG][DB] [DA][DF] | %17
[M:5/8] E-E- E3 |] %18
V:2
 z3 z2 E | x6 | x6 | x6 |[M:5/8] x5 |[M:1/8] x |[M:3/4] x6 | x6 | x6 | x6 | x6 | D2 z2 z2 | x6 | %13
 z2 DE DB | x6 | x6 | x6 |[M:5/8] x5 |] %18
V:3
 z3 z2 G,/A,/ | [E,B,E]>[E,B,E][E,B,E] [E,B,][E,C][E,D] | [E,E]>[E,E][E,E] [E,B,]3 | %3
 [B,,B,]>[B,,B,][B,,B,] [B,,B,][B,,B,][B,,B,] |[M:5/8] [E,B,E]3 [E,G,E]2 |[M:1/8] [E,G,E] | %6
[M:3/4] [E,B,]>[E,B,] [E,B,][E,=B,] [E,C][E,D] | [E,E]>[E,E] [E,E] E,3 | B,,>B,, B,,B,, B,,B,, | %9
 E,6 | [B,,B,]>[B,,B,] [B,,B,][B,,B,] [B,,B,][B,,B,] | B,,2 C,D, C,B,, | E,>E, E,E, E,[E,B,E] | %13
 [E,G,E]2 [F,A,][G,B,] [F,A,][E,G,E] | [E,B,]>[E,C] [E,D] [E,E]2 [E,G,] | [E,B,]>[E,C] E, E,2 A,, | %16
 [B,,B,]>[B,,B,] [B,,G,][B,,F,] [B,,F,][B,,A,] |[M:5/8] [E,G,]-[E,G,]- [E,G,]3 |] %18
V:4
 z3 z2 E, | x6 | x6 | x6 |[M:5/8] x5 |[M:1/8] x |[M:3/4] x6 | x6 | x6 | x6 | x6 | x6 | x6 | x6 | %14
 x6 | x6 | x6 |[M:5/8] x5 |] %18

